X:7830
T:Reinlender etter Svein Nymo
C:anon.
O:Norway
N:After Svein Nymo
R:Reinlender
Z:Transcribed by Frank Nordberg - http://www.musicaviva.com
F:http://abc.musicaviva.com/tunes/norway/reinlender-nymo.abc
%u = upstroke
%v = downstroke
M:2/4
L:1/16
K:Dm
(uAG)|F2(DF) GE^CE|F2D2 (DF)(Ad)|^c2A2 (Ac)(eg)|(fe)(d^c) d2(AG)|
F2(DF) GE^CE|F2D2 (DF)(Ad)|^c2(Ac) (eg)(fe)|[1d2d2 d2:|[2d2d2d4||
|:va2aa (ab)bb|(ba)(af) d2(ef)|(fe)ed (^cA)=Bc|(d^c)de (fe)fg|
a2aa (ab)bb|(ba)(af) d2(ef)|(fe)ed (^cA)=Bc|d2d2d4:|
W:
W:
W:  From Musica Viva - http://www.musicaviva.com
W:  the Internet center for free sheet music downloads.

